X: 1
T: Whiskey You're the Devil    [G]
C: Jerry Barrington 1873
O: Ireland
M: C
L: 1/16
Z: 2019 John Chambers <jc@trillian.mit.edu>
K: G
d2 | "G"G2G2G2A2 B2d2d2d2 | "Am"e2A2A2B2 "D7"c2d2e2d2 |
w:Oh now, brave boys, we'll run for march, and not to Por-tu-gal or Spain, the
| "C"g2a2g2e2 "G"e2d2d2B2 | "A7"A2A2A2B2 "D7"A2F2E2D2 |]
w:drums are beat-ing, ban-ners fly, the devil at home we'll find to-night, Oh
"Chorus"\
[| "G"G4B3A G6dB | GGGG GABc d6 dB |
w:Love, fare thee well, with me ti-ther-ee-i doo-dle-um-a day, with me
| "Am"AAAA ABcd e4 "D7"z2d2 | "C"g2a2g2e2 "G"e2d2"C"g2e2 |
w:ti-ther-ee-i doo-dle-um-a day, My right-fol to-ra-lad-die o, there's
| "G"d2B2 "D7"A3B "G"G4 z4 || "G"G2G2 G3A B2d4d2 | "C"e2d2e2f2 g4 |
w:whis-ky in the jar. Whis-ky you're the dev-il, you're lead-ing me a-stray,
| "C"g3a g2e2 "G"e2d4B2 | "A7"A3A A2B2 "D7"A6 d2 | "G"G2G2G2A2 B2d2d2d2 |
w:o-ver hills and moun-tains and to A-me-ri-cay. You're strong-er, sweet-er, de-cent-er, you're
| "C"e2d2e2f2 g4g2f2 | "G"e2d2 "C"[g3c3]f "G"e2d2 "Em"B2G | "Am"A4-"D7"A4 "G"G6 |]
w:spunk-i-er than tay, Oh,_ whis-ky you're my dar-ling drunk or so-*ber.
%
W:Oh the French are fighting boldly,
W:Men are dying hot and cowardly,
W:Give every man his flask of powder,
W:His firelock on his shoulder.
W:     Chorus
W:Says the mother, "Do not wrong me,
W:Don't take my daughter from me,
W:For if you do I shall torment you,
W:And after that my ghost will haunt you."
W:     Chorus
